src/section/s3/en-m.svg

<svg width="161" height="36" viewBox="0 0 161 36" fill="none" xmlns="http://www.w3.org/2000/svg">
<g filter="url(#filter0_d_6_2436)">
<path d="M20.1225 28.6719H6.79639V7.03125H7.4833V28.0392H20.1225V28.6633V28.6719Z" fill="white"/>
<path d="M41.8289 17.8469C41.8289 24.3035 37.9736 29.1049 32.1348 29.1049C26.2961 29.1049 22.4408 24.3035 22.4408 17.8469C22.4408 11.3902 26.2961 6.58887 32.1348 6.58887C37.9736 6.58887 41.8289 11.3555 41.8289 17.8469ZM41.0818 17.8469C41.0818 11.0435 36.9174 7.24753 32.1348 7.24753C27.3522 7.24753 23.1878 11.0435 23.1878 17.8469C23.1878 24.6502 27.3522 28.4462 32.1348 28.4462C36.9174 28.4462 41.0818 24.6242 41.0818 17.8469Z" fill="white"/>
<path d="M64.2565 13.4962L64.3166 13.8082H63.6297L63.5696 13.4962C62.8569 9.95153 60.3067 7.2562 56.0565 7.2562C51.583 7.2562 47.2039 10.9569 47.2039 17.8815C47.2039 24.8062 51.2138 28.4462 55.8075 28.4462C60.4012 28.4462 62.8913 25.5602 63.6383 21.8595L63.6984 21.5475H64.3853L64.3252 21.8595C63.5181 25.9069 60.8734 29.1049 55.7474 29.1049C50.6213 29.1049 46.4569 24.9622 46.4569 17.9075C46.4569 10.8529 50.6814 6.58887 56.1767 6.58887C60.8649 6.58887 63.4751 9.5962 64.2565 13.4875V13.4962Z" fill="white"/>
<path d="M72.2418 20.2306L69.0391 28.6632H68.3264L76.6209 7.03125H77.5224L85.8169 28.6632H85.0699L81.8414 20.2306H72.2418ZM81.558 19.5719L77.0502 7.62925L72.4822 19.5719H81.5495H81.558Z" fill="white"/>
<path d="M95.4766 7.66306V28.6711H94.7897V7.66306H86.5897V7.03906H103.677V7.66306H95.4766Z" fill="white"/>
<path d="M108.459 28.6719V7.03125H109.146V28.6633H108.459V28.6719Z" fill="white"/>
<path d="M134.175 17.8469C134.175 24.3035 130.32 29.1049 124.481 29.1049C118.643 29.1049 114.787 24.3035 114.787 17.8469C114.787 11.3902 118.643 6.58887 124.481 6.58887C130.32 6.58887 134.175 11.3555 134.175 17.8469ZM133.437 17.8469C133.437 11.0435 129.273 7.24753 124.49 7.24753C119.707 7.24753 115.543 11.0435 115.543 17.8469C115.543 24.6502 119.707 28.4462 124.49 28.4462C129.273 28.4462 133.437 24.6242 133.437 17.8469Z" fill="white"/>
<path d="M153.744 28.6719L140.821 7.66392C140.881 10.5846 140.881 13.9992 140.881 16.9113V28.6719H140.194V7.03125H141.216L154.173 28.0392C154.113 25.1186 154.113 21.7039 154.113 18.7919V7.03125H154.8V28.6633H153.744V28.6719Z" fill="white"/>
</g>
<defs>
<filter id="filter0_d_6_2436" x="0.796387" y="0.588867" width="160.004" height="34.5156" filterUnits="userSpaceOnUse" color-interpolation-filters="sRGB">
<feFlood flood-opacity="0" result="BackgroundImageFix"/>
<feColorMatrix in="SourceAlpha" type="matrix" values="0 0 0 0 0 0 0 0 0 0 0 0 0 0 0 0 0 0 127 0" result="hardAlpha"/>
<feOffset/>
<feGaussianBlur stdDeviation="3"/>
<feColorMatrix type="matrix" values="0 0 0 0 0 0 0 0 0 0 0 0 0 0 0 0 0 0 0.9 0"/>
<feBlend mode="normal" in2="BackgroundImageFix" result="effect1_dropShadow_6_2436"/>
<feBlend mode="normal" in="SourceGraphic" in2="effect1_dropShadow_6_2436" result="shape"/>
</filter>
</defs>
</svg>

<?xml version="1.0" encoding="UTF-8"?>
<svg id="_圖層_1" data-name="圖層 1" xmlns="http://www.w3.org/2000/svg" version="1.1" viewBox="0 0 161 36">
  <defs>
    <style>
      .cls-1 {
        fill: #fff;
        stroke-width: 0px;
      }
    </style>
  </defs>
  <path class="cls-1" d="M20.1,28.7H6.8V7h.7v21h12.6v.6h0Z"/>
  <path class="cls-1" d="M41.8,17.8c0,6.5-3.9,11.3-9.7,11.3s-9.7-4.8-9.7-11.3,3.9-11.3,9.7-11.3,9.7,4.8,9.7,11.3ZM41.1,17.8c0-6.8-4.2-10.6-8.9-10.6s-8.9,3.8-8.9,10.6,4.2,10.6,8.9,10.6,8.9-3.8,8.9-10.6Z"/>
  <path class="cls-1" d="M64.3,13.5v.3c0,0-.6,0-.6,0v-.3c-.8-3.5-3.3-6.2-7.6-6.2s-8.9,3.7-8.9,10.6,4,10.6,8.6,10.6,7.1-2.9,7.8-6.6v-.3h.7v.3c-.9,4-3.5,7.2-8.6,7.2s-9.3-4.1-9.3-11.2,4.2-11.3,9.7-11.3,7.3,3,8.1,6.9h0Z"/>
  <path class="cls-1" d="M72.2,20.2l-3.2,8.4h-.7l8.3-21.6h.9l8.3,21.6h-.7l-3.2-8.4h-9.6ZM81.6,19.6l-4.5-11.9-4.6,11.9h9.1Z"/>
  <path class="cls-1" d="M95.5,7.7v21h-.7V7.7h-8.2v-.6h17.1v.6h-8.2Z"/>
  <path class="cls-1" d="M108.5,28.7V7h.7v21.6h-.7Z"/>
  <path class="cls-1" d="M134.2,17.8c0,6.5-3.9,11.3-9.7,11.3s-9.7-4.8-9.7-11.3,3.9-11.3,9.7-11.3,9.7,4.8,9.7,11.3ZM133.4,17.8c0-6.8-4.2-10.6-8.9-10.6s-8.9,3.8-8.9,10.6,4.2,10.6,8.9,10.6,8.9-3.8,8.9-10.6Z"/>
  <path class="cls-1" d="M153.7,28.7l-12.9-21c0,2.9,0,6.3,0,9.2v11.8h-.7V7h1l13,21c0-2.9,0-6.3,0-9.2V7h.7v21.6h-1.1Z"/>
</svg>
